src/topics/icons/cloudcraft.svg

<?xml version="1.0" encoding="UTF-8" standalone="no"?>
<svg width="256px" height="399px" viewBox="0 0 256 399" version="1.1" xmlns="http://www.w3.org/2000/svg" xmlns:xlink="http://www.w3.org/1999/xlink" preserveAspectRatio="xMidYMid">
	<g>
		<g transform="translate(1.000000, 1.000000)">
			<path d="M142.8392,127.7227 L215.0532,84.2337 L215.0532,253.3587 L145.2552,294.8347 L145.2552,331.8807 L253.7102,266.6467 L253.7102,23.5627 L142.8392,90.5417 L142.8392,127.7227 Z" fill="#C08A07"></path>
			<path d="M144.645,89.3661 L253.71,23.5631 L215.858,0.7451 L108.722,64.8231 L144.645,89.3661 Z" fill="#F6B71F"></path>
			<path d="M35.9951,154.0311 L143.8201,89.6701 L108.4611,64.8231 L0.2911,129.6021 L35.9951,154.0311 Z" fill="#4286C5"></path>
			<path d="M142.8392,90.542 L35.9952,154.031 L35.9952,396.712 L145.2552,331.881 L145.2552,294.834 L73.5782,338.19 L73.5782,168.662 L142.8392,127.723 L142.8392,90.542 Z" fill="#22496E"></path>
			<path d="M0.2909,129.6019 L0.2909,376.5779 L35.9949,396.7119 L35.9949,154.0309 L0.2909,129.6019 Z" fill="#30689C"></path>
			<path d="M73.5785,338.1896 L145.9305,294.1596 L112.4235,272.5186 L73.5785,295.6396 L73.5785,338.1896 Z" fill="#4286C5"></path>
			<path d="M145.9304,294.1594 L215.0534,253.3584 L179.6174,232.6874 L112.0874,272.8354 L145.9304,294.1594 Z" fill="#F6B71F"></path>
			<path d="M215.053,253.3586 L215.053,84.2336 L179.617,105.6426 L179.617,232.6876 L215.053,253.3586 Z" fill="#E4A409"></path>
		</g>
		<path d="M147.5441,330.6012 L147.5441,296.5682 L216.6851,255.4792 C216.6881,255.4772 216.6921,255.4782 216.6951,255.4762 C216.6981,255.4742 216.6991,255.4702 216.7031,255.4682 L216.7101,255.4642 C216.7131,255.4622 216.7121,255.4582 216.7151,255.4562 C217.1001,255.2202 217.3431,254.8062 217.3431,254.3562 L217.3431,85.2342 C217.3431,84.7692 217.0911,84.3412 216.6881,84.1112 C216.6881,84.1112 216.6861,84.1122 216.6851,84.1112 C216.2831,83.8852 215.7861,83.8912 215.3861,84.1302 L214.3971,84.7272 L146.1101,125.5012 L146.1101,91.3282 L253.4201,26.8482 L253.4201,266.9152 L147.5441,330.6012 Z M38.2861,155.7632 L143.5301,92.8652 L143.5301,127.0462 L73.9231,168.5512 C73.5301,168.7842 73.2871,169.2052 73.2871,169.6622 L73.2871,339.1892 C73.2871,339.6552 73.5391,340.0832 73.9451,340.3092 C74.1401,340.4232 74.3601,340.4792 74.5771,340.4792 C74.8071,340.4792 75.0401,340.4162 75.2441,340.2902 L144.9641,298.1172 L144.9641,332.1432 L38.2861,395.4452 L38.2861,155.7632 Z M2.5801,133.0462 L35.7061,155.7092 L35.7061,395.5022 L2.5801,376.8212 L2.5801,133.0462 Z M109.3321,67.2472 L143.2431,90.3862 L37.0461,153.5012 L3.6741,130.6712 L109.3321,67.2472 Z M216.8521,3.2452 L252.2151,24.5622 L145.5731,88.9922 L111.6661,65.8562 L216.8521,3.2452 Z M180.7911,232.2602 L75.8671,294.3562 L75.8671,170.3982 L180.7911,108.1682 L180.7911,232.2602 Z M183.3711,232.2582 L183.3711,106.6822 L214.7631,87.5182 L214.7631,252.1102 L183.3711,232.2582 Z M182.0821,234.4932 L213.5091,254.3662 L147.1681,293.7162 L114.9721,273.5952 L182.0821,234.4932 Z M75.8671,297.3672 L112.5531,275.0292 L144.7681,295.1632 L75.8671,336.9052 L75.8671,297.3672 Z M255.3891,23.4852 C255.3801,23.4792 255.3831,23.4642 255.3741,23.4582 L217.5221,0.6402 C217.1161,0.3952 216.6071,0.3982 216.2011,0.6372 L0.6261,129.4972 C0.6061,129.5092 0.6131,129.5402 0.5941,129.5532 C0.2581,129.7772 0.0391,130.1332 0.0171,130.5402 C0.0171,130.5492 0.0031,130.5542 0.0031,130.5642 C0.0031,130.5682 0.0081,130.5692 0.0081,130.5732 C0.0071,130.5842 0.0001,130.5912 0.0001,130.6022 L0.0001,377.5762 C0.0001,378.0422 0.2521,378.4692 0.6571,378.6962 L36.3491,398.8222 C36.3531,398.8242 36.3541,398.8282 36.3571,398.8302 C36.5561,398.9432 36.7761,399.0002 36.9961,399.0002 C37.2191,399.0002 37.4461,398.9372 37.6471,398.8242 C37.6501,398.8222 37.6511,398.8192 37.6541,398.8172 L255.3741,268.7462 C255.7611,268.5132 256.0001,268.0982 256.0001,267.6452 L256.0001,24.5622 C256.0001,24.1192 255.7611,23.7212 255.3891,23.4852 L255.3891,23.4852 Z" fill="#241200"></path>
	</g>
</svg>

<svg height="399" preserveAspectRatio="xMidYMid" viewBox="0 0 256 399" width="256" xmlns="http://www.w3.org/2000/svg"><g transform="translate(1 1)"><path d="m142.8392 127.7227 72.214-43.489v169.125l-69.798 41.476v37.046l108.455-65.234v-243.084l-110.871 66.979z" fill="#c08a07"/><path d="m144.645 89.3661 109.065-65.803-37.852-22.818-107.136 64.078z" fill="#f6b71f"/><path d="m35.9951 154.0311 107.825-64.361-35.359-24.847-108.17 64.779z" fill="#4286c5"/><path d="m142.8392 90.542-106.844 63.489v242.681l109.26-64.831v-37.047l-71.677 43.356v-169.528l69.261-40.939z" fill="#22496e"/><path d="m.2909 129.6019v246.976l35.704 20.134v-242.681z" fill="#30689c"/><path d="m73.5785 338.1896 72.352-44.03-33.507-21.641-38.845 23.121z" fill="#4286c5"/><path d="m145.9304 294.1594 69.123-40.801-35.436-20.671-67.53 40.148z" fill="#f6b71f"/><path d="m215.053 253.3586v-169.125l-35.436 21.409v127.045z" fill="#e4a409"/></g><path d="m147.5441 330.6012v-34.033l69.141-41.089c.003-.002.007-.001.01-.003s.004-.006.008-.008l.007-.004c.003-.002.002-.006.005-.008.385-.236.628-.65.628-1.1v-169.122c0-.465-.252-.893-.655-1.123 0 0-.002.001-.003 0-.402-.226-.899-.22-1.299.019l-.989.597-68.287 40.774v-34.173l107.31-64.48v240.067zm-109.258-174.838 105.244-62.898v34.181l-69.607 41.505c-.393.233-.636.654-.636 1.111v169.527c0 .466.252.894.658 1.12.195.114.415.17.632.17.23 0 .463-.063.667-.189l69.72-42.173v34.026l-106.678 63.302zm-35.706-22.717 33.126 22.663v239.793l-33.126-18.681zm106.752-65.799 33.911 23.139-106.197 63.115-33.372-22.83zm107.52-64.002 35.363 21.317-106.642 64.43-33.907-23.136zm-36.061 229.015-104.924 62.096v-123.958l104.924-62.23zm2.58-.002v-125.576l31.392-19.164v164.592zm-1.289 2.235 31.427 19.873-66.341 39.35-32.196-20.121zm-106.215 62.874 36.686-22.338 32.215 20.134-68.901 41.742zm179.522-273.882c-.009-.006-.006-.021-.015-.027l-37.852-22.818c-.406-.245-.915-.242-1.321-.003l-215.575 128.86c-.02.012-.013.043-.032.056-.336.224-.555.58-.577.987 0 .009-.014.014-.014.024 0 .004.005.005.005.009-.001.011-.008.018-.008.029v246.974c0 .466.252.893.657 1.12l35.692 20.126c.004.002.005.006.008.008.199.113.419.17.639.17.223 0 .45-.063.651-.176.003-.002.004-.005.007-.007l217.72-130.071c.387-.233.626-.648.626-1.101v-243.083c0-.443-.239-.841-.611-1.077z" fill="#241200"/></svg>
